X:1
T:Norsk sjømands-sang
T:Norsk sjømands-sang (Versjon 1)
T:B. Bjørnson
T:Friedrich August Reissiger
C:Friedrich August Reissiger
%%score [ 1 2 3 4 ]
L:1/8
Q:1/4=65
M:3/4
K:A
V:1 treble-8 nm="T1"
V:2 treble-8 nm="T2"
V:3 treble-8 nm="Baryton"
V:4 bass nm="Bass"
V:1
"^Moderato con energia" E | A A A A A/ G/ A/ B/ | c e a3/2 f/ e f | B c e3/2 d/ c f | %4
w: Den|nor- ske sjø- mand er et gen- nem-|bar- ket fol- ke- færd; hvor|far- tøj fly- de kan, der|
 B c e3/2 d/ c ^d | e3 B f3/2 B/ | g3 f e f | B3 e (e/^d/) (c/d/) | e2 z3/2 e/ e e | a4 (gf) | %10
w: er han før- ste mand. På|togt og hjem- me|her ved sund og|skær og fis- * ke- *|vær han har sin|Gud i _|
 e4 f2 | e3/2 c/ e3 d | c2 z3/2 e/ e e | a4 (=fe) | ^d4 d2 | e3/2 e/ f3 e | A2 z2 z |] %17
w: sind og|sæt- ter li- vet|ind. Han har sin|Gud i _|sind og|sæt- ter li- vet|ind.|
V:2
 E | A A A A A/ G/ A/ B/ | c e f3/2 d/ c B | B A G3/2 G/ A B | G A c3/2 B/ A B | B3 B ^d3/2 B/ | %6
w: Den|nor- ske sjø- mand er et gen- nem-|bar- ket fol- ke- færd; hvor|far- tøj fly- de kan, der|er han før- ste mand. På|togt og hjem- me|
 ^d3 d c c | B3 ^A =A A | G2 z3/2 B/ B d | (c2 f2) (ed) | (d2 c2) ^B2 | c3/2 c/ =B3 G | %12
w: her ved sund og|skær og fis- ke-|vær han har sin|Gud _ i _|sind * og|sæt- ter li- vet|
 A2 z3/2 B/ B d | =c4 c2 | =c4 c2 | ^c3/2 c/ d3 d | c2 z2 z |] %17
w: ind. Han har sin|Gud i|sind og|sæt- ter li- vet|ind.|
V:3
 E | A A A A A/ G/ A/ B/ | c c d3/2 A/ A A | G A c3/2 B/ A A | E F G3/2 A/ A G | G3 B B3/2 B/ | %6
w: Den|nor- ske sjø- mand er et gen- nem-|bar- ket fol- ke- færd; hvor|far- tøj fly- de kan, der|er han før- ste mand. På|togt og hjem- me|
 ^B3 G G A | G3 =G F B | B2 z3/2 G/ G B | (A2 d2) A2 | (B2 A2) A2 | A3/2 A/ (A2 G) E | %12
w: her ved sund og|skær og fis- ke-|vær han har sin|Gud _ i|sind _ og|sæt- ter li- * vet|
 E2 z3/2 G/ G B | A4 A2 | A4 A2 | A3/2 A/ A2 G2 | A2 z2 z |] %17
w: ind. Han har sin|Gud i|sind og|sæt- ter li- vet|ind.|
V:4
 E, | A, A, A, A, A,/ G,/ A,/ B,/ | C A, D,3/2 F,/ A, D, | E, E, E,3/2 E,/ A,, D, | %4
w: Den|nor- ske sjø- mand er et gen- nem-|bar- ket fol- ke- færd; hvor|far- tøj fly- de kan, der|
 D, C, B,,3/2 E,/ A,, z | z (G,,/B,,/) E, G, B,3/2 A,/ | G,3 ^B,, C, A,, | B,,3 B,, B,, B,, | %8
w: er han før- ste mand.|På _ togt og hjem- me|her ved sund og|skær og fis- ke|
 E,2 z3/2 E,/ E, E, | (F,2 D,2) (D,F,) | (G,2 A,2) ^D,2 | E,3/2 E,/ E,3 E, | A,,2 z3/2 E,/ E, E, | %13
w: vær han har sin|Gud _ i _|sind _ og|sæt- ter li- vet|ind. Han har sin|
 =F,4 F,2 | =F,4 F,2 |"_\"Skrevet på min bryllupsdag den 2. Juli 1870\"" E,3/2 E,/ E,3 E, | %16
w: Gud i|sind og|sæt- ter li- vet|
 A,,2 z2 z |] %17
w: ind.|

